assets/img/braze_icons/paint.svg

<svg fill="none" height="24" viewBox="0 0 24 24" width="24" xmlns="http://www.w3.org/2000/svg"><path clip-rule="evenodd" d="m11.2071 1.29289c-.3905-.390521-1.0237-.390521-1.41421 0-.39052.39053-.39052 1.02369 0 1.41422l.29281.29283-5.92787 5.9279c-.5692.56919-1.03898 1.03895-1.3904 1.45286-.36499.43-.66066.865-.82898 1.3831-.26103.8034-.26103 1.6687 0 2.4721.16832.5181.46399.9531.82898 1.3831.35142.4139.82121.8837 1.39044 1.4529l3.27017 3.2702c.56914.5691 1.03896 1.039 1.45289 1.3904.42993.3649.86499.6606 1.38307.8289.8033.2611 1.6687.2611 2.4721 0 .518-.1683.9531-.464 1.383-.8289.414-.3514.8837-.8212 1.4528-1.3903l5.5264-5.5264c.1785-.1784.3523-.3522.4875-.5115.1484-.1748.308-.3967.4021-.6864.1306-.4017.1306-.8344 0-1.2361-.0941-.2897-.2537-.5116-.4021-.6864-.1352-.1593-.309-.333-.4875-.5115l-8.8912-8.89116c-.0038-.00387-.0077-.0077-.0116-.0115zm.2929 3.12117-5.89875 5.89874c-.60569.6057-1.01688 1.018-1.30914 1.3623-.10592.1248-.18802.2314-.25216.3247h15.04585z" fill="#801ed7" fill-rule="evenodd"/></svg>

<svg width="24" height="24" viewBox="0 0 24 24" fill="none" xmlns="http://www.w3.org/2000/svg">
<path fill-rule="evenodd" clip-rule="evenodd" d="M11.2071 1.29289C10.8166 0.902369 10.1834 0.902369 9.79289 1.29289C9.40237 1.68342 9.40237 2.31658 9.79289 2.70711L10.0857 2.99994L4.15783 8.92784C3.58863 9.49703 3.11885 9.96679 2.76743 10.3807C2.40244 10.8107 2.10677 11.2457 1.93845 11.7638C1.67742 12.5672 1.67742 13.4325 1.93845 14.2359C2.10677 14.754 2.40244 15.189 2.76743 15.619C3.11885 16.0329 3.58864 16.5027 4.15787 17.0719L7.42804 20.3421C7.99718 20.9112 8.467 21.3811 8.88093 21.7325C9.31086 22.0974 9.74592 22.3931 10.264 22.5614C11.0673 22.8225 11.9327 22.8225 12.7361 22.5614C13.2541 22.3931 13.6892 22.0974 14.1191 21.7325C14.5331 21.3811 15.0028 20.9113 15.5719 20.3422L21.0983 14.8158C21.2768 14.6374 21.4506 14.4636 21.5858 14.3043C21.7342 14.1295 21.8938 13.9076 21.9879 13.6179C22.1185 13.2162 22.1185 12.7835 21.9879 12.3818C21.8938 12.0921 21.7342 11.8702 21.5858 11.6954C21.4506 11.5361 21.2768 11.3624 21.0983 11.1839L12.2071 2.29274C12.2033 2.28887 12.1994 2.28504 12.1955 2.28124L11.2071 1.29289ZM11.5 4.41406L5.60125 10.3128C4.99556 10.9185 4.58437 11.3308 4.29211 11.6751C4.18619 11.7999 4.10409 11.9065 4.03995 11.9998H19.0858L11.5 4.41406Z" fill="#801ED7"/>
</svg>
